images/logo_google_desktop.svg

<svg width="104" height="64" fill="none" xmlns="http://www.w3.org/2000/svg"><path d="M25.3575 30.9384H13.3186v3.5572h8.5315c-.4266 5.0274-4.5975 7.1617-8.5315 7.1617-5.02409 0-9.43203-3.984-9.43203-9.5332 0-5.4069 4.17095-9.5807 9.43203-9.5807 4.0288 0 6.446 2.5612 6.446 2.5612l2.5121-2.6086s-3.223-3.5572-9.0529-3.5572C5.78246 18.9863 0 25.2943 0 32.0767c0 6.6875 5.40328 13.1852 13.4134 13.1852 7.0148 0 12.1811-4.8377 12.1811-11.9521 0-1.5177-.237-2.3714-.237-2.3714Zm9.8586-2.5612c-4.9293 0-8.4841 3.8418-8.4841 8.395 0 4.5531 3.4126 8.4897 8.5315 8.4897 4.5975 0 8.3893-3.5571 8.3893-8.3949.0474-5.644-4.3605-8.4898-8.4367-8.4898Zm.0474 3.32c2.4173 0 4.7397 1.9446 4.7397 5.1224 0 3.0829-2.275 5.1223-4.7397 5.1223-2.7016 0-4.8345-2.1343-4.8345-5.1223 0-2.9406 2.1329-5.1224 4.8345-5.1224Zm18.3901-3.32c-4.9293 0-8.4841 3.8418-8.4841 8.395 0 4.5531 3.4126 8.4897 8.5315 8.4897 4.5975 0 8.3893-3.5571 8.3893-8.3949.0474-5.644-4.3605-8.4898-8.4367-8.4898Zm.0474 3.32c2.4173 0 4.7397 1.9446 4.7397 5.1224 0 3.0829-2.275 5.1223-4.7397 5.1223-2.7016 0-4.8345-2.1343-4.8345-5.1223.0474-2.9406 2.1329-5.1224 4.8345-5.1224Zm18.0583-3.32c-4.5501 0-8.1049 3.9841-8.1049 8.4424 0 5.0749 4.1236 8.4423 8.0102 8.4423 2.4172 0 3.6969-.9485 4.6449-2.0394v1.66c0 2.8932-1.7537 4.6481-4.4554 4.6481-2.5594 0-3.8865-1.8972-4.3131-2.9881l-3.223 1.3755c1.1375 2.4189 3.46 4.98 7.5835 4.98 4.5028 0 7.9628-2.8457 7.9628-8.8218V28.8989h-3.5548v1.4229c-1.0902-1.1857-2.5595-1.9446-4.5502-1.9446Zm.3318 3.32c2.2277 0 4.5028 1.8972 4.5028 5.1224 0 3.32-2.2751 5.1223-4.5502 5.1223-2.4172 0-4.6449-1.9446-4.6449-5.0749-.0474-3.2726 2.3225-5.1698 4.6923-5.1698Zm23.4616-3.3674c-4.2657 0-7.8679 3.4149-7.8679 8.4424 0 5.312 3.9814 8.4897 8.2945 8.4897 3.5548 0 5.7827-1.9445 7.0617-3.6994l-2.938-1.9446c-.7585 1.1857-2.0382 2.324-4.1237 2.324-2.3698 0-3.46-1.2806-4.1235-2.5612l11.3282-4.6954-.569-1.3755c-1.138-2.7034-3.6971-4.98-7.0623-4.98Zm.1422 3.2726c1.5641 0 2.6543.8063 3.1283 1.8023l-7.5362 3.1777c-.3318-2.4663 1.9907-4.98 4.4079-4.98Zm-13.366 13.1378h3.697V19.8874h-3.697v24.8528Z" fill="#fff"/></svg>

<svg width="104" height="64" viewBox="0 0 104 64" fill="none" xmlns="http://www.w3.org/2000/svg">
<path d="M25.3575 30.9384H13.3186V34.4956H21.8501C21.4235 39.523 17.2526 41.6573 13.3186 41.6573C8.29451 41.6573 3.88657 37.6733 3.88657 32.1241C3.88657 26.7172 8.05752 22.5434 13.3186 22.5434C17.3474 22.5434 19.7646 25.1046 19.7646 25.1046L22.2767 22.496C22.2767 22.496 19.0537 18.9388 13.2238 18.9388C5.78246 18.9863 0 25.2943 0 32.0767C0 38.7642 5.40328 45.2619 13.4134 45.2619C20.4282 45.2619 25.5945 40.4242 25.5945 33.3098C25.5945 31.7921 25.3575 30.9384 25.3575 30.9384ZM35.2161 28.3772C30.2868 28.3772 26.732 32.219 26.732 36.7722C26.732 41.3253 30.1446 45.2619 35.2635 45.2619C39.861 45.2619 43.6528 41.7048 43.6528 36.867C43.7002 31.223 39.2923 28.3772 35.2161 28.3772ZM35.2635 31.6972C37.6808 31.6972 40.0032 33.6418 40.0032 36.8196C40.0032 39.9025 37.7282 41.9419 35.2635 41.9419C32.5619 41.9419 30.429 39.8076 30.429 36.8196C30.429 33.879 32.5619 31.6972 35.2635 31.6972ZM53.6536 28.3772C48.7243 28.3772 45.1695 32.219 45.1695 36.7722C45.1695 41.3253 48.5821 45.2619 53.701 45.2619C58.2985 45.2619 62.0903 41.7048 62.0903 36.867C62.1377 31.223 57.7298 28.3772 53.6536 28.3772ZM53.701 31.6972C56.1183 31.6972 58.4407 33.6418 58.4407 36.8196C58.4407 39.9025 56.1657 41.9419 53.701 41.9419C50.9994 41.9419 48.8665 39.8076 48.8665 36.8196C48.9139 33.879 50.9994 31.6972 53.701 31.6972ZM71.7593 28.3772C67.2092 28.3772 63.6544 32.3613 63.6544 36.8196C63.6544 41.8945 67.778 45.2619 71.6646 45.2619C74.0818 45.2619 75.3615 44.3134 76.3095 43.2225V44.8825C76.3095 47.7757 74.5558 49.5306 71.8541 49.5306C69.2947 49.5306 67.9676 47.6334 67.541 46.5425L64.318 47.918C65.4555 50.3369 67.778 52.898 71.9015 52.898C76.4043 52.898 79.8643 50.0523 79.8643 44.0762V28.8989H76.3095V30.3218C75.2193 29.1361 73.75 28.3772 71.7593 28.3772ZM72.0911 31.6972C74.3188 31.6972 76.5939 33.5944 76.5939 36.8196C76.5939 40.1396 74.3188 41.9419 72.0437 41.9419C69.6265 41.9419 67.3988 39.9973 67.3988 36.867C67.3514 33.5944 69.7213 31.6972 72.0911 31.6972ZM95.5527 28.3298C91.287 28.3298 87.6848 31.7447 87.6848 36.7722C87.6848 42.0842 91.6662 45.2619 95.9793 45.2619C99.5341 45.2619 101.762 43.3174 103.041 41.5625L100.103 39.6179C99.3445 40.8036 98.0648 41.9419 95.9793 41.9419C93.6095 41.9419 92.5193 40.6613 91.8558 39.3807L103.184 34.6853L102.615 33.3098C101.477 30.6064 98.9179 28.3298 95.5527 28.3298ZM95.6949 31.6024C97.259 31.6024 98.3492 32.4087 98.8232 33.4047L91.287 36.5824C90.9552 34.1161 93.2777 31.6024 95.6949 31.6024ZM82.3289 44.7402H86.0259V19.8874H82.3289V44.7402Z" fill="white"/>
</svg>
